Apricity Icons/16/panel/state-ok.svg

<svg xmlns="http://www.w3.org/2000/svg" width="16" height="16" version="1.1">
 <defs>
  <style id="current-color-scheme" type="text/css">
   .ColorScheme-Text { color:#dfdfdf; } .ColorScheme-Highlight { color:#4285f4; }
  </style>
 </defs>
 <path style="fill:currentColor" class="ColorScheme-Text" d="M 8,1 A 7,7 0 0 0 1,8 7,7 0 0 0 8,15 7,7 0 0 0 15,8 7,7 0 0 0 8,1 Z M 11.182,4.4648 12.596,5.8789 8.3535,10.121 6.9395,11.535 5.5254,10.121 3.4043,8 4.8184,6.5859 6.9395,8.707 Z"/>
</svg>

<svg xmlns="http://www.w3.org/2000/svg" width="16" height="16"><defs><style id="current-color-scheme" type="text/css"></style></defs><path d="M8 1a7 7 0 0 0-7 7 7 7 0 0 0 7 7 7 7 0 0 0 7-7 7 7 0 0 0-7-7zm3.182 3.465l1.414 1.414-4.242 4.242-1.414 1.414-1.415-1.414L3.405 8l1.413-1.414L6.94 8.707z" fill="currentColor" color="#dfdfdf"/></svg>
